X:126
T:Lo ferm voler
C:Arnaut Daniel
L:1/4
K:C
C>EG | G2A | _B2A | G2z | F>FE | F>DE |
C>EF | G2G/z/ | A>cG | _B>AF | G>A_B | A2G/z/ | E>DE |
G>GF | A>_BA | (AG)F/z/ | E>D (E/D/) | C>CE | D>EF |
(ED)C/z/ | B,>C (D/E/) | C>EG | A>FG | (F>ED) | (DC)z |]





